icons/1_Primary/Shopee.svg

<svg width="1024" height="1024" viewBox="0 0 1024 1024" fill="none" xmlns="http://www.w3.org/2000/svg">
<g clip-path="url(#clip0_2_3456)">
<path d="M512 1024C794.77 1024 1024 794.77 1024 512C1024 229.23 794.77 0 512 0C229.23 0 0 229.23 0 512C0 794.77 229.23 1024 512 1024Z" fill="#F8C18C"/>
<path d="M738.77 359.31C738.775 358.029 738.528 356.759 738.042 355.573C737.556 354.388 736.842 353.31 735.939 352.4C735.036 351.491 733.963 350.769 732.781 350.275C731.599 349.78 730.331 349.524 729.05 349.52H623.78C621.2 280.8 572.15 226 512 226C451.85 226 402.82 280.8 400.23 349.53H294.82C292.266 349.588 289.837 350.644 288.053 352.472C286.27 354.301 285.274 356.756 285.28 359.31V360.07H285.21L300.21 691.32C300.21 692.24 300.243 693.17 300.31 694.11V695.44C302.59 718.49 319.31 737.06 342.07 737.91L342.12 737.96H678.35C701.49 737.33 720.24 718.5 722.22 695.17V694.86C722.22 694.61 722.22 694.37 722.27 694.12C722.303 693.533 722.327 692.947 722.34 692.36L738.74 359.8C738.77 359.65 738.77 359.48 738.77 359.31ZM512 255.9C555.82 255.9 591.53 297.48 593.2 349.53H430.81C432.48 297.48 468.19 255.9 512 255.9ZM595.12 609.19C592.12 633.78 577.24 653.47 554.12 663.33C541.27 668.82 524.01 671.79 510.35 670.86C489.527 670.17 469.114 664.888 450.57 655.39C443.98 652 434.15 645.24 426.57 638.91C424.66 637.31 424.43 636.28 425.7 634.49C426.38 633.49 427.64 631.6 430.42 627.49C434.42 621.58 434.96 620.83 435.42 620.14C436.71 618.14 438.81 617.99 440.88 619.61L441.26 619.91L442.4 620.8L444 622C463.9 637.59 487.08 646.58 510.48 647.47C543.03 647.03 566.48 632.39 570.64 609.91C575.25 585.17 555.83 563.81 517.84 551.91C505.96 548.19 475.93 536.16 470.39 532.91C444.363 517.637 432.207 497.667 433.92 473C436.57 438.78 468.33 413.26 508.47 413.09C526.71 413.122 544.757 416.833 561.53 424C567.62 426.57 578.53 432.49 582.26 435.29C584.42 436.88 584.85 438.73 583.61 440.73C582.92 441.89 581.77 443.73 579.36 447.55C576.18 452.55 576.08 452.75 575.36 453.93C574.1 455.85 572.62 456.03 570.36 454.58C551.95 442.21 531.54 435.99 509.09 435.58C481.14 436.13 460.19 452.77 458.82 475.42C458.45 495.88 473.82 510.83 506.96 522.22C574.22 543.85 600 569.21 595.12 609.18V609.19Z" fill="white"/>
</g>
<defs>
<clipPath id="clip0_2_3456">
<rect width="1024" height="1024" fill="white"/>
</clipPath>
</defs>
</svg>

<svg xmlns="http://www.w3.org/2000/svg" viewBox="0 0 1024 1024">
   <circle cx="512" cy="512" r="512" style="fill:#ee4d2d"/>
   <path d="M738.77 359.31a9.75 9.75 0 0 0-9.72-9.79H623.78C621.2 280.8 572.15 226 512 226s-109.18 54.8-111.77 123.53H294.82a9.76 9.76 0 0 0-9.54 9.78v.76h-.07l15 331.25q0 1.38.1 2.79v1.33c2.28 23.05 19 41.62 41.76 42.47l.05.05h336.23c23.14-.63 41.89-19.46 43.87-42.79v-.31c0-.25 0-.49.05-.74q.05-.88.07-1.76l16.4-332.56c.03-.15.03-.32.03-.49ZM512 255.9c43.82 0 79.53 41.58 81.2 93.63H430.81c1.67-52.05 37.38-93.63 81.19-93.63Zm83.12 353.29c-3 24.59-17.88 44.28-41 54.14-12.85 5.49-30.11 8.46-43.77 7.53a141.4 141.4 0 0 1-59.78-15.47c-6.59-3.39-16.42-10.15-24-16.48-1.91-1.6-2.14-2.63-.87-4.42.68-1 1.94-2.89 4.72-7 4-5.91 4.54-6.66 5-7.35 1.29-2 3.39-2.15 5.46-.53l.38.3 1.14.89 1.6 1.2c19.9 15.59 43.08 24.58 66.48 25.47 32.55-.44 56-15.08 60.16-37.56 4.61-24.74-14.81-46.1-52.8-58-11.88-3.72-41.91-15.75-47.45-19Q431.35 510 433.92 473c2.65-34.22 34.41-59.74 74.55-59.91A135.65 135.65 0 0 1 561.53 424c6.09 2.57 17 8.49 20.73 11.29 2.16 1.59 2.59 3.44 1.35 5.44-.69 1.16-1.84 3-4.25 6.82-3.18 5-3.28 5.2-4 6.38-1.26 1.92-2.74 2.1-5 .65-18.41-12.37-38.82-18.59-61.27-19-27.95.55-48.9 17.19-50.27 39.84-.37 20.46 15 35.41 48.14 46.8 67.26 21.63 93.04 46.99 88.16 86.96Z" style="fill:#fff"/>
</svg>
